X: 298
T:La borria de la Margarita
M:3/8
L:1/16
S:Joseph Perrier
R:Bourre
Z:Stoney
K:G
G2 z2 Bd ||""g2  agfe |d2 BGBd |cBAGFG|AB^cdef|g2  agfe|d2  BGBd|!cBAFD
F|1G4   ef :|
2G2  z2  (D2  |:D)GFGAF|G4   Bd|cBAFAc|e2 d4   |efgage|d2 BGBd|1cBAFAc|(
3(BdB) G2 d2  :|2cBAFDF|"dal Segno  "G2 z2  ef||           |"Coda"cBAFA
F|G2 z2 A2 |G2 z2  ||
W:
W: From "Falaleiro" http://home.t-online.de/home/pheld/homepage.htm
